dist/img/svg/icon-footer-ok.svg

<svg width="28" height="28" viewBox="0 0 28 28" fill="none" xmlns="http://www.w3.org/2000/svg">
<circle cx="14" cy="14" r="14" fill="#25878A"/>
<path d="M12.7622 16.5654C11.6003 16.4441 10.5526 16.1577 9.65569 15.4556C9.54439 15.3683 9.42949 15.2841 9.32793 15.1865C8.93533 14.8092 8.89577 14.377 9.20643 13.9316C9.47219 13.5505 9.91831 13.4485 10.382 13.6674C10.4718 13.7098 10.5574 13.7627 10.6393 13.8196C12.3109 14.9691 14.6073 15.0008 16.2852 13.8713C16.4514 13.7437 16.6291 13.6397 16.8351 13.5866C17.2355 13.4837 17.609 13.6309 17.8239 13.9816C18.0694 14.382 18.0662 14.7729 17.7638 15.0838C17.2997 15.5604 16.7417 15.9052 16.1216 16.1459C15.5353 16.3734 14.8932 16.4879 14.2576 16.5639C14.3535 16.6684 14.3987 16.7198 14.4586 16.7801C15.3217 17.6479 16.1885 18.5121 17.0487 19.3826C17.3418 19.6792 17.403 20.047 17.2417 20.392C17.0652 20.769 16.6703 21.0171 16.283 20.9905C16.0377 20.9735 15.8463 20.8513 15.6763 20.6799C15.025 20.024 14.3615 19.3803 13.7234 18.712C13.5377 18.5176 13.4484 18.5544 13.2845 18.7231C12.6293 19.3982 11.9634 20.0628 11.2936 20.7238C10.9928 21.0205 10.6349 21.0739 10.2861 20.9044C9.91533 20.7245 9.67939 20.3458 9.6976 19.9651C9.71016 19.7076 9.83668 19.511 10.0133 19.3345C10.8674 18.481 11.7191 17.6253 12.5712 16.7704C12.6275 16.7135 12.6801 16.6532 12.7622 16.5654Z" fill="white"/>
<path d="M13.47 13.5924C11.3972 13.5854 9.69746 11.8656 9.70954 9.78782C9.72147 7.6871 11.4223 5.9942 13.5156 6.00001C15.6131 6.00567 17.2966 7.72292 17.2861 9.84548C17.2754 11.919 15.5639 13.5997 13.47 13.5924ZM15.3539 9.79285C15.3503 8.76118 14.5293 7.93987 13.5005 7.93893C12.463 7.93783 11.6347 8.77406 11.6427 9.81516C11.6504 10.8429 12.4784 11.6584 13.5101 11.6546C14.5386 11.651 15.3573 10.8244 15.3539 9.79285Z" fill="white"/>
</svg>

<svg width="28" height="28" viewBox="0 0 28 28" fill="none" xmlns="http://www.w3.org/2000/svg"><circle cx="14" cy="14" r="14" fill="#25878A"/><path d="M12.762 16.565c-1.162-.12-2.21-.407-3.106-1.11-.112-.087-.227-.17-.328-.268-.393-.378-.432-.81-.122-1.255.266-.382.712-.484 1.176-.265.09.043.175.096.257.153 1.672 1.15 3.968 1.18 5.646.051a1.53 1.53 0 01.55-.284c.4-.103.774.044.989.395.245.4.242.79-.06 1.102a4.561 4.561 0 01-1.642 1.062c-.587.227-1.229.342-1.864.418.096.104.14.156.2.216.864.868 1.73 1.732 2.59 2.603.294.296.355.664.194 1.009-.177.377-.572.625-.959.599-.245-.017-.437-.14-.607-.311-.651-.656-1.315-1.3-1.953-1.968-.185-.194-.275-.158-.439.011a130.85 130.85 0 01-1.99 2c-.301.297-.66.35-1.008.181-.37-.18-.607-.558-.588-.939.012-.257.139-.454.315-.63.854-.854 1.706-1.71 2.558-2.565.056-.056.11-.117.191-.205z" fill="#fff"/><path d="M13.47 13.592c-2.073-.007-3.773-1.726-3.76-3.804A3.8 3.8 0 0113.516 6c2.097.006 3.78 1.723 3.77 3.845-.01 2.074-1.722 3.755-3.816 3.747zm1.884-3.8A1.848 1.848 0 0013.5 7.94a1.851 1.851 0 00-1.858 1.876 1.848 1.848 0 001.867 1.84 1.844 1.844 0 001.844-1.862z" fill="#fff"/></svg>
